src/16/panel/ubuntuone-client-error.svg

<svg xmlns="http://www.w3.org/2000/svg" width="16" height="16" version="1.1">
 <defs>
  <style id="current-color-scheme" type="text/css">
   .ColorScheme-Text { color:#dfdfdf; } .ColorScheme-Highlight { color:#4285f4; }
  </style>
 </defs>
 <path style="fill:currentColor" class="ColorScheme-Text" d="M 6 3 A 4 4 0 0 0 2 7 A 4 4 0 0 0 2.0058594 7.171875 A 3 3 0 0 0 0 10 A 3 3 0 0 0 3 13 L 13 13 A 3 3 0 0 0 16 10 A 3 3 0 0 0 13.990234 7.171875 A 3 3 0 0 0 14 7 A 3 3 0 0 0 11 4 A 3 3 0 0 0 9.1992188 4.6054688 A 4 4 0 0 0 6 3 z M 6.0019531 6 L 6.5019531 6 L 6.5214844 6 C 6.648776 6.0053336 6.7668573 6.0759797 6.8554688 6.1679688 L 8 7.2929688 L 9.1679688 6.1679688 C 9.3004533 6.0533155 9.379499 6.0046661 9.5 6 L 10 6 L 10 6.5 C 10 6.6433166 9.9828543 6.7750117 9.875 6.875 L 8.7285156 8.0214844 L 9.8535156 9.1464844 C 9.9473867 9.2411401 10 9.3653492 10 9.5 L 10 10 L 9.5 10 C 9.3675155 10 9.2403552 9.9475047 9.1464844 9.8535156 L 8 8.7285156 L 6.8554688 9.8535156 C 6.7615312 9.9481714 6.633905 10 6.5019531 10 L 6.0019531 10 L 6.0019531 9.5 C 6.0019531 9.3673485 6.0525467 9.2385203 6.1464844 9.1445312 L 7.2929688 8.0214844 L 6.1464844 6.875 C 6.0418948 6.7803443 5.9913011 6.6399837 6.0019531 6.5 L 6.0019531 6 z"/>
</svg>

<svg xmlns="http://www.w3.org/2000/svg" width="16" height="16"><defs><style id="current-color-scheme" type="text/css"></style></defs><path d="M6 3a4 4 0 0 0-4 4 4 4 0 0 0 .006.172A3 3 0 0 0 0 10a3 3 0 0 0 3 3h10a3 3 0 0 0 3-3 3 3 0 0 0-2.01-2.828A3 3 0 0 0 14 7a3 3 0 0 0-3-3 3 3 0 0 0-1.8.605A4 4 0 0 0 6 3zm.002 3h.52a.51.51 0 0 1 .333.168L8 7.293l1.168-1.125c.132-.115.211-.163.332-.168h.5v.5c0 .143-.017.275-.125.375L8.729 8.021l1.125 1.125A.498.498 0 0 1 10 9.5v.5h-.5a.5.5 0 0 1-.354-.146L8 8.729 6.855 9.854a.498.498 0 0 1-.353.146h-.5v-.5c0-.133.05-.261.144-.355L7.293 8.02 6.146 6.875a.458.458 0 0 1-.144-.375V6z" fill="currentColor" color="#bebebe"/></svg>
